!!!COM: Mozart
!!!OTL: 12 Variations on "Ah Vous dirais-je, Maman" for the Piano,
!!!Variation: 4 b
**kern	**kern
*M2/4	*M2/4
=-	=-
*	*
*	*^
12GGL	4gg	4ee
12C	.	.
12EJ	.	.
12GL	4gg	4ee
12c	.	.
12eJ	.	.
=	=	=
12gL	2ff	(4ee
12f#	.	.
12gJ	.	.
12GL	.	4dd)
12A	.	.
12BJ	.	.
=	=	=
12cL	[4ee	(4dd
12B	.	.
12cJ	.	.
12CL	8.eeL]	4cc)
12E	.	.
12FJ	.	.
.	16aaJk	.
=	=	=
12GL	(4ee	(4cc
12F#	.	.
12GJ	.	.
4GG	12ddL)	4b)
.	12ee	.
.	12ffJ	.
*	*	*
*	*v	*v
=	=
*	*
*	*^
12GGL	4gg	4ee
12C	.	.
12EJ	.	.
12GL	4gg	4ee
12c	.	.
12eJ	.	.
=	=	=
12gL	2ff	(4ee
12f#	.	.
12gJ	.	.
12GL	.	4dd)
12A	.	.
12BJ	.	.
=	=	=
12cL	[4ee	(4dd
12B	.	.
12cJ	.	.
12CL	8.eeL]	4cc)
12E	.	.
12FJ	.	.
.	16aaJk	.
=	=	=
12GL	(4ee	(4cc
12F#	.	.
12GJ	.	.
4GG	12ddL)	4b)
.	12ff	.
.	12ddJ	.
*	*	*
*	*v	*v
=	=
*-	*-
